img/document-long.svg

<svg width="16" height="18" fill="none" xmlns="http://www.w3.org/2000/svg"><path d="M16 1H4v14h1V2h10v13c0 .5-.5 1-1 1H4l-1 1h11c1 0 2-1 2-2V1Z" fill="currentColor"/><path d="M13 12H6v-1h7v1Zm-7 2h7v-1H6v1Zm6-4H6V9h6v1ZM6 8h5V7H6v1Zm6-2H6V5h6v1Z" fill="currentColor"/><path fill-rule="evenodd" clip-rule="evenodd" d="M1.5 17C1 17 0 16 0 14h5v1c0 .5-1 2-1.5 2h-2Zm.5-1c-1 0-1-1-1-1h3s-.5 1-1 1H2Z" fill="currentColor"/></svg>

<svg width="16" height="18" viewBox="0 0 16 18" fill="none" xmlns="http://www.w3.org/2000/svg">
<path d="M16 1H4V15H5V14V2H15V15C15 15.5 14.5 16 14 16H4L3 17H14C15 17 16 16 16 15V1Z" fill="currentColor"/>
<path d="M13 12H6V11H13V12Z" fill="currentColor"/>
<path d="M6 14H13V13H6V14Z" fill="currentColor"/>
<path d="M12 10H6V9H12V10Z" fill="currentColor"/>
<path d="M6 8H11V7H6V8Z" fill="currentColor"/>
<path d="M12 6H6V5H12V6Z" fill="currentColor"/>
<path fill-rule="evenodd" clip-rule="evenodd" d="M1.5 17C1 17 0 16 0 14H5V15C5 15.5 4 17 3.5 17H1.5ZM2 16C1 16 1 15 1 15H4C4 15 3.5 16 3 16H2Z" fill="currentColor"/>
</svg>
